src/assets/duotone/EthereumClassic.svg

<svg width="24" height="24" viewBox="0 0 24 24"  xmlns="http://www.w3.org/2000/svg">
<path opacity="0.4" d="M6.90007 9.09914L11.6701 6.97914C11.8801 6.88914 12.1201 6.88914 12.3201 6.97914L17.1001 9.09914C17.5201 9.28914 17.9101 8.77914 17.6201 8.41914L12.6201 2.30914C12.2801 1.88914 11.7201 1.88914 11.3801 2.30914L6.38007 8.41914C6.09007 8.77914 6.48007 9.28914 6.90007 9.09914Z" />
<path opacity="0.4" d="M6.90006 14.9005L11.6801 17.0205C11.8901 17.1105 12.1301 17.1105 12.3301 17.0205L17.1101 14.9005C17.5301 14.7105 17.9201 15.2205 17.6301 15.5805L12.6301 21.6905C12.2901 22.1105 11.7301 22.1105 11.3901 21.6905L6.39006 15.5805C6.09006 15.2205 6.47006 14.7105 6.90006 14.9005Z" />
<path d="M11.7801 9.49L7.65006 11.55C7.28006 11.73 7.28006 12.26 7.65006 12.44L11.7801 14.5C11.9201 14.57 12.0901 14.57 12.2301 14.5L16.3601 12.44C16.7301 12.26 16.7301 11.73 16.3601 11.55L12.2301 9.49C12.0801 9.42 11.9201 9.42 11.7801 9.49Z" />
</svg>

<?xml version="1.0" encoding="UTF-8"?>
<svg width="24" height="24" viewBox="0 0 24 24" xmlns="http://www.w3.org/2000/svg">
 <path d="m6.9001 9.0991 4.77-2.12c0.21-0.09 0.45-0.09 0.65 0l4.78 2.12c0.42 0.19 0.81-0.32 0.52-0.68l-5-6.11c-0.34-0.42-0.9-0.42-1.24 0l-5 6.11c-0.29 0.36 0.1 0.87 0.52 0.68z" opacity=".4"/>
 <path d="m6.9001 14.9 4.78 2.12c0.21 0.09 0.45 0.09 0.65 0l4.78-2.12c0.42-0.19 0.81 0.32 0.52 0.68l-5 6.11c-0.34 0.42-0.9 0.42-1.24 0l-5-6.11c-0.3-0.36 0.08-0.87 0.51-0.68z" opacity=".4"/>
 <path d="m11.78 9.49-4.13 2.06c-0.37 0.18-0.37 0.71 0 0.89l4.13 2.06c0.14 0.07 0.31 0.07 0.45 0l4.13-2.06c0.37-0.18 0.37-0.71 0-0.89l-4.13-2.06c-0.15-0.07-0.31-0.07-0.45 0z"/>
</svg>
